X:28
T:
S:Efter snickaren Nikl. Pettersson, Salands i Linde.
M:2/4
L:1/8
K:Bb
F|F B B B|d2 B> B|c> B A B|
w:Jag tor-ka’ av mig svet-ten, ty jag var li-tet
c2 z c|c> B A B|c2 f e|d> c B c|d2 z d|
w:varm, ock la-de mig att so-va på lil-la vän-nens arm. Vad
f> f e e|A2 c e|g g f d|B2 B d|
w:kys-sar hon mig gi-ver! Jag in-tet kan be-skri-va, så
f> f e e|A2 c d|e> e d c|B3:|
w:ro-ligt som jag ha-de på lil-la vän-nens arm.
